tools/download-figma-icons/icons/outlined-large/wind-mill.svg

<svg width="64" height="64" viewBox="0 0 64 64" fill="none" xmlns="http://www.w3.org/2000/svg">
<path d="M60.51 40.3904L52.83 33.3504C52.58 33.1204 52.25 32.9804 51.91 32.9604L48.49 32.7504V19.4904C48.49 18.7204 47.91 18.0804 47.15 18.0004C46.39 17.9304 45.69 18.4304 45.53 19.1804L43.37 29.4504C43.3 29.7804 43.34 30.1204 43.49 30.4204L45.04 33.5604L33.74 40.1904C33.08 40.5804 32.82 41.4004 33.13 42.1004C33.38 42.6504 33.92 42.9804 34.5 42.9804C34.66 42.9804 34.81 42.9604 34.97 42.9004L44.81 39.6604C44.95 39.6104 45.07 39.5404 45.19 39.4604L44.37 60.9704H24.13L22.21 22.8704L35.75 30.7704C35.99 30.9104 36.25 30.9704 36.5 30.9704C36.96 30.9704 37.42 30.7604 37.71 30.3604C38.16 29.7404 38.08 28.8804 37.51 28.3604L27.68 19.4004C27.43 19.1704 27.1 19.0304 26.76 19.0104L21.99 18.7204V1.50043C21.99 0.73043 21.41 0.0904297 20.65 0.0104297C19.88 -0.0595703 19.18 0.44043 19.03 1.19043L16.26 14.2704C16.19 14.6004 16.23 14.9404 16.38 15.2504L18.53 19.5904L3.74001 28.2004C3.08001 28.5904 2.81001 29.4104 3.13001 30.1104C3.38001 30.6604 3.92001 31.0004 4.50001 31.0004C4.65001 31.0004 4.81001 30.9804 4.97001 30.9304L17.56 26.8104C17.88 26.7004 18.16 26.4904 18.35 26.2004L18.94 25.2904L17.14 61.0004H7.50001C6.67001 61.0004 6.00001 61.6704 6.00001 62.5004C6.00001 63.3304 6.67001 64.0004 7.50001 64.0004H56.5C57.33 64.0004 58 63.3304 58 62.5004C58 61.6704 57.33 61.0004 56.5 61.0004H49.3L48.38 36.7204L58.74 42.8004C58.98 42.9404 59.24 43.0104 59.5 43.0104C59.96 43.0104 60.42 42.8004 60.71 42.4004C61.17 41.7804 61.08 40.9204 60.52 40.4004L60.51 40.3904Z" fill="black"/>
</svg>

<svg width="64" height="64" viewBox="0 0 64 64" fill="none" xmlns="http://www.w3.org/2000/svg"><path d="m60.51 40.39-7.68-7.04a1.5 1.5 0 0 0-.92-.39l-3.42-.21V19.49c0-.77-.58-1.41-1.34-1.49-.76-.07-1.46.43-1.62 1.18l-2.16 10.27c-.07.33-.03.67.12.97l1.55 3.14-11.3 6.63c-.66.39-.92 1.21-.61 1.91.25.55.79.88 1.37.88.16 0 .31-.02.47-.08l9.84-3.24c.14-.05.26-.12.38-.2l-.82 21.51H24.13l-1.92-38.1 13.54 7.9c.24.14.5.2.75.2.46 0 .92-.21 1.21-.61.45-.62.37-1.48-.2-2l-9.83-8.96a1.5 1.5 0 0 0-.92-.39l-4.77-.29V1.5c0-.77-.58-1.41-1.34-1.49-.77-.07-1.47.43-1.62 1.18l-2.77 13.08c-.07.33-.03.67.12.98l2.15 4.34L3.74 28.2c-.66.39-.93 1.21-.61 1.91.25.55.79.89 1.37.89.15 0 .31-.02.47-.07l12.59-4.12c.32-.11.6-.32.79-.61l.59-.91L17.14 61H7.5c-.83 0-1.5.67-1.5 1.5S6.67 64 7.5 64h49c.83 0 1.5-.67 1.5-1.5s-.67-1.5-1.5-1.5h-7.2l-.92-24.28 10.36 6.08a1.492 1.492 0 0 0 1.97-.4c.46-.62.37-1.48-.19-2l-.01-.01Z" fill="currentColor"/></svg>
